X:1
T:Title
%%score { 1 | 2 }
L:1/8
Q:1/4=100
M:4/4
K:G
V:1 treble nm="Grand Piano"
V:2 treble 
V:1
 B2 G>A B B2 [^DAB] | [EGB]2 [DG]>[DFA] [DGB]4 | [B,D]2 [B,DG]>[DGB] [DAd]2 [DGB]2 | [DFA]6 z2 | %4
w: Thoro~Harris * * * * *||||
 [CFA]2 [A,DF]>[B,EG] [CFA] [CFA]2 [^CGA] | [DFA]2 [A,DF]>[B,EG] [CFA]4 | %6
w: ||
 [F,D]2 [A,DF]>[CFA] [DAc]2 [Fd]2 | [GB]6 z2 | [Bd]2 [GB]>[Ac] [Bd]2 z2 | %9
w: |||
 [ce]2 [EAc]>[CEA] [A,CE]2 z2 | [A,CF]2 [A,DF][A,EF] B2 A2 | D6 z2 | d2 B>c d2 =f2 | %13
w: ||||
 [Ge]2 [EAc]>[CEA] [CE]2 z2 | [A,CF]2 [CDA][EFc] [Fe]2 [Fd]2 | G6 z2 |] %16
w: |||
V:2
 [G,DG]2 [G,B,D]>[G,CD] [G,DG] [G,DG]2[K:bass] F, | E,2 B,,>D, G,4 | G,2 G,>G, F,2 G,2 | D,6 z2 | %4
 D,2 D,>D, D, D,2 E, | D,2 D,>D, D,4 | D,2 D,>D, F,2 [D,A,]2 | [G,B,]6 z2 | %8
 [G,D]2 [D,D]>[D,D] [G,D]2 z2 | [C,C]2 C,>C, C,2 z2 | D,2 D,D, [F,D]2 [D,CD]2 | [G,B,]6 z2 | %12
 [G,B,G]2 [G,D]>[G,A,E] [G,B,G]2[K:bass] [B,,DG]2 | [C,C]2 C,>C, C,2 z2 | D,2 D,D, [D,C]2 [D,C]2 | %15
 [G,B,]6 z2 |] %16

